X: 41527
T: Uncle Herman's
R: hornpipe
M: 4/4
K: Dmajor
ag|:fdAf ecAd|BDGB ADFA|EDEG (3FGF DF|
EF^GB Acea|fdAf ecAd|BDGB ADFA|
EDEG (3FGF DF|1 EDCE D2ag:|2 EDCE D2||
K:A
cd|ef ec AB AF|EF GB Ac ea|fd Af ec Ac|
BA GB A2cd|ea ec AB AF|EF GB Ac ea|
fd Af ec Ac|BA GB A2cd|ec Ae fd Af|
ec Ae f[df] [d2f2]|ec Ac (3BcB AF|EF GB A2cd|
ec Aa fd fa|ec Aa f[df][d2f2]|ec Ac (3BcB AF|EG BG A2z2||

